X:1
T:A Basso Profundo Am I
T:A Basso Profundo Am I
T:Al Bernard
T:George Botsford
C:Al Bernard
Z:George Botsford
%%score 1 { ( 2 4 6 ) | ( 3 5 ) }
L:1/8
Q:1/4=85
M:4/4
K:Eb
V:1 bass nm="Voice"
V:2 treble nm="Piano"
V:4 treble 
V:6 treble 
V:3 bass 
V:5 bass 
V:1
 z8 | z8 | G,>G, (3F,G,A, G,>G, (3F,G,A, | G,>G, (3F,G,A, G,4 | B,>B, (3=A,B,C B,>B, (3A,B,C | %5
w: ||Ev- 'ry- one has a sec- ret long- ing and|when I grew to a man|How I want- ed to be a ten- or and|
 B,>B, (3=A,B,A, G,4 | F,>F, G,G,/G,/ E,>E, G,G,/G,/ | B,>B, F,>F, B,3 G, | %8
w: sing as ten- * ors can!|Love songs sweet full of sym- pa- thy, I would|sing them all the while! But|
 F,>G, E,G,/G,/ F,>G, E,G,/G,/ |"^ritenuto" F,>[Q:1/4=40]E, D,C, !fermata!G,,2 | %10
w: all such songs are not left for me, I must|sing "The Big Bass Viol!|
"^a tempo" !fermata!B,,>[Q:1/4=85]B,, | G,2 E,2 B,,2 F,2 | E,6 E,F, | G,2 E,2 B,,2 F,2 | E,8 | %15
w: For my|voice be- came a|bass! All such|songs are out of|place|
 F,2 F,>G, A,2 G,>A, | B,3 G,!>(! E,F,G,E,!>)! | F,2 E,D, C,2 F,2 | B,,6!mp! B,,>B,, | %19
w: Songs of the sea or of|drink are left for me; of|love, not the slight- est|trace Yet a|
 G,2 E,2 B,,2 F,2 | E,6 G,A, | B,2 G,2 F,2 E,2 | C,6!mf! B,,2 | E,2 G,E, D,2 G,D, | %24
w: ten- or I would|be Full of|sweet- est sym- pa-|thy But|down went my voice in the|
 C,2 E,C, =B,,4 | B,,2 E,B,, =A,,2 E,A,, | _A,,2 E,A,, !fermata!G,,4 | F,,2 G,,A,, B,,2 C,D, | %28
w: dee- pest of tones;|Love can't be heard in a|cho- rus of groans|Now when I sing I must|
"^ritenuto"!<(! E,2 F,G,!f![Q:1/4=40] !fermata!=A,4!<)! | %29
w: praise Da- vy Jones!|
!mp!"^a tempo"[Q:1/4=75] B,,2 B,,>B,, =A,,B,,E,F, | G,8 | B,2 A,G, F,2 E,F, | G,8 | %33
w: "Rocked in the cra- dle of the|deep,"|That sort of song I must|sing|
"_colla voce" E,2 E,,2 G,2 E,,2 | B,3 C B,2 G,2 | F,2 F,F, F,2 E,C, | !fermata!B,,6 z!mf! B, | %37
w: "Drink- ing, drink- ing,|drink- * * ing!"|Such songs do not mean a|thing But|
 C2 C2 A,2 B,C | B,G,- G,4 z G, | A,2 A,2 (F,G, A,2 | G,8) | F,2 F,2 F,2 E,C, | D,3 E, F,4 | %43
w: if my voice was a|ten- or,- * I'd|sing way up to high|C!|Love songs grand I could|then com- mand,|
 F,2 F,2 F, E,2 C, | F,6 B,,2 | E,2 G,E, D,2 G,D, | C,2 E,C, =B,,4 | _B,,2 E,B,, =A,,2 E,A,, | %48
w: Oh! how hap- py I'd|be! But|down went my voice in the|deep- est of tones;|Love can't be heard in a|
 A,,2 E,A,, G,,4 | F,,2 G,,A,, B,,2 C,D, | %50
w: chor- us of groans.|Now when I sing I must|
!<(! E,2 F,G,!f![Q:1/4=40] !fermata!=A,2[Q:1/4=50] A,A,!<)! | (B,=A,)_A,G, F, !fermata!B,,2 B,, | %52
w: praise Da- vy- Jones! For a|bas- * so pro- fun- do, a|
 (E,D,)_D,C, _C, !fermata!_G,,2 G,, | (B,,=A,,)_A,,=G,, F,, !fermata!B,,2[Q:1/4=15] !fermata!B,,, | %54
w: bas- * so pro- fun- do, a|bas- * so pro- fun- do am|
[Q:1/4=70] E,,8- | !fermata!E,,8 |] %56
w: I!||
V:2
 [B,EGB]2 (3[B,EGB][B,EGB][B,EGB] [CEGc]2 (3[CEGc][CEGc][CEGc] | =A,4 (F2 ^F2) | %2
 [G,E]2 [_A,D]2 [G,E]2 [A,D]2 | [G,E]2 [A,D]2 [G,E]4 | ([B,G]2 [C^F]2 [B,G]2 [CF]2 | %5
 [B,G]2 [C^F]2 [CG]4) | =F2 G2 E2 G2 | _B2 F2 B3 G | F>G EG/G/ F>G EG/G/ | F>E DC !fermata!G2 | %10
 !fermata!_B,>B, | ([B,G]2 [G,E]2 [A,B,]2 [A,F]2 | [G,E]6) ([G,E][A,F] | %13
 [B,G]2 [G,E]2 [A,B,]2 [A,F]2 | [G,E]8) | F2 F>G A2 G>A | [EGB]3 G EFGE | F2 ED C2 F2 | B,6 B,>B, | %19
 ([B,G]2 [G,E]2 [A,B,]2 [A,F]2 | [G,E]6) ([EG][DA] | [_DGB]2 [B,DG]2 [A,DF]2 [G,DE]2 | %22
 [A,C]6) [A,B,=D]2 | [G,B,E]4 [G,B,D]4 | [A,C]4 [=A,E]4 | E8- | [A,E]4 !fermata![G,D]4 | x4 x2 CD | %28
!<(! E2 FG !fermata![E=Ae]4!<)! | [EG][B,B][EG][B,B] [EG][B,B][EG][B,B] | %30
 [EG][B,B][EG][B,B] [EG][B,B][EG][B,B] | [DA][B,B][DA][B,B] [DA][B,B][DA][B,B] | %32
 [EG][B,B][EG][B,B] [EG][B,B][EG][B,B] | [G,B,E]4 [B,EG]4 | B3 c B2 [EG]2 | F2 FF F2 EC | %36
 !fermata!B,6 z [DB] | c2 c2 (A2 Bc) | BG- G4 z G | A2 A2 (FG A2) | %40
 z2 (3[=A=a][Bb][cc'] [Bb]2 [ee']2 | F2 F2 F2 EC | [B,D]3 [=A,E] [B,F]4 | F2 F2 F E2 C | %44
 z2 [D_AB]2 _A2 x2 | [G,B,_E]4 [G,=B,D]4 | [A,C]4 [=A,E]4 | E8- | [A,E]4 [G,D]4 | x4 x2 CD | %50
!<(! E2 FG !fermata![E=Ae]2 AA!<)! | (B=A)_AG F B,2 B, | ED_DC _C x2 x | x8 | %54
 z2 (3[Dd][Ee][Ff] [Ee]2 [_CFA]2 | [B,EGee']8 |] %56
V:3
!f! [E,,E,]4 [C,,C,]4 | [F,,F,]4 [A,,A,]4 |!mp! B,,2 _C,2 B,,2 C,2 | B,,2 _C,2 B,,2 =C,2 | %4
 D,2 E,2 D,2 E,2 | D,2 E,2 D,2 F,2 | [A,,E,]2 [G,,F,]2 [C,G,]4 | A,4 (G,B,,E,G,) | %8
 [G,,F,]2 [C,G,]2 [G,,F,]2 [C,G,]2 | [A,,A,]2 [D,,D,]2 !fermata!G,,2 | z2 | [E,,B,,]4 [B,,,D,]4 | %12
 (B,,2 (3=A,,B,,C, B,,2) z2 | [E,,B,,]4 [B,,,D,]4 | (B,,2 (3=A,,B,,C, B,,2 E,2) | %15
!mf! _A,2!<(! A,>G, F,2 G,>F,!<)! | E,2 D,2!>(! C,4!>)! | C,3 D, E,4 | D,6!mp! D,2 | %19
 [E,,B,,]4 [B,,,D,]4 | B,,2 (3=A,,B,,C, B,,2 z2 | E,,4 B,,2 E,2 | E,6 D,2 | [E,,E,]4 [G,,D,]4 | %24
 [A,,E,]4 [_C,_G,]4 | [B,,=G,]4 [=B,,^F,]4 | [C,=F,]4 !fermata!=B,,4 | F,2 G,A, B,2 x2 | %28
 x4!f! !fermata![F,,C,=A,]4 |!mp! [E,,E,]2 z2 [E,,E,]2 z2 | [E,,E,]2 z2 [E,,E,]2 z2 | %31
 [E,,E,]2 z2 [E,,E,]2 z2 | [E,,E,]2 z2 G,,2 A,,2 | E,2 E,,2 E,2 E,,2 | B,3 C B,2 G,2 | C,6 E,2 | %36
 !fermata!D,6 z2 | A,4 F,2 G,A, | (G, B,2) (B, C B,3) | F,4 (A,G, F,2) | z2 (3=A,B,C B,2 E2 | %41
 C,4 E,4 | F,3 C, D,4 | C,4 E,4 | [B,,D,]6 z2 | [E,,E,]4 [G,,D,]4 | [A,,E,]4 [_C,_G,]4 | %47
 [B,,=G,]4 [=B,,^F,]4 | [C,=F,]4 =B,,4 | F,2 G,A, B,2 x2 | x4!f! !fermata![F,,C,=A,]2 A,A, | %51
 (B,=A,)_A,G, F, B,,2 B,, | E,D,_D,C, _C, _G,,2 G,, | B,=A,_A,=G, F, B,2 B,, | %54
 [F,_A,_C]2 x2 [G,B,]2 x2 | [E,,E,]4 !fermata![E,,,E,,]4 |] %56
V:4
 x8 | [EG]2 (3[EG][DF][CE] [B,DB]4 | x8 | x8 | x8 | x8 | C2 =B,2 C4 | x8 | =B,2 C2 B,2 C2 | %9
 =B,2 ^F,2 [G,B,]2 | x2 | x8 | x8 | x8 | x8 | [B,D]2 [B,D]2 [B,D]2 [B,D]2 | B,3 =B, C2 _B,2 | %17
 =A,8 | x8 | x8 | x8 | x8 | x8 | x8 | x8 | B,4 =A,4 | x8 | x8 | x8 | x8 | x8 | x8 | x8 | x8 | %34
 [EG]6 B,2 | =A,8 | x8 | E2 E2 D4 | E6 x E | D4 D4 | [EG]8 | =A,4 A,4 | x8 | =A,4 A,4 | %44
 [_A,F]6 B,2 | x8 | x8 | B,4 =A,4 | x8 | x8 | x8 | x8 | x8 | x8 | x6 (3def | x8 |] %56
V:5
 x8 | x8 | E,,8- | E,,8 | G,,8- | G,,8 | x8 | B,,4 E,,4 | x8 | x6 | x2 | x8 | E,,6 x2 | x8 | E,,8 | %15
 B,,2 B,,2 B,,2 B,,2 | x8 | F,,8 | B,,2 A,,2 G,,2 F,,2 | x8 | E,,6 x2 | x8 | A,,2 G,,2 F,,2 B,,2 | %23
 x8 | x8 | x8 | x8 | F,,2 G,,A,, B,,2 C,D, | E,2 F,G, x4 | x8 | x8 | x8 | x8 | x8 | x8 | F,,8 | %36
 B,,2 F,,2 !fermata!B,,,2 x2 | F,,4 C,4 | E,,8 | B,,4 B,,4 | [E,,B,,G,]8 | z2 F,,2 z2 F,,2 | %42
 z2 F,,2 z2 F,,2 | z2 F,,2 z2 F,,2 | x8 | x8 | x8 | x8 | x8 | F,,2 G,,A,, B,,2 C,D, | E,2 F,G, x4 | %51
 x8 | x4 x _G,2 _G, | B,,=A,,_A,,=G,, F,, B,,2 B,,, | [E,,E,]8- | x8 |] %56
V:6
 x8 | x8 | x8 | x8 | x8 | x8 | x8 | x8 | x8 | x6 | x2 | x8 | x8 | x8 | x8 | x8 | x8 | x8 | x8 | %19
 x8 | x8 | x8 | x8 | x8 | x8 | x8 | x8 | x8 | x8 | x8 | x8 | x8 | x8 | x8 | x8 | x8 | x8 | x8 | %38
 x8 | x8 | x8 | x8 | x8 | x8 | z2 (5:4:5f/g/f/=e/f/ [dfb]2 x2 | x8 | x8 | x8 | x8 | x8 | x8 | x8 | %52
 x8 | x8 | x8 | x8 |] %56

